blockchains/ethereum/assets/0x278a83B64C3e3E1139f8E8A52D96360cA3c69A3D/logo.svg

<svg width="250" height="250" viewBox="0 0 250 250" fill="none" xmlns="http://www.w3.org/2000/svg">
<g clip-path="url(#clip0_37_33588)">
<path d="M250 125C250 194.05 194.05 250 125 250C55.95 250 0 194.05 0 125C0 55.95 55.95 0 125 0C194.05 0 250 55.95 250 125Z" fill="#F8931F"/>
<path d="M184.15 109.299L180.15 95.7992L161.2 100.349L152.15 69.9492L129.65 75.3992L146.8 132.949L146.45 133.149L93.6499 84.0492L70.9499 89.4992L79.9999 119.899L60.8999 124.499L64.8999 137.999L83.9999 133.399L86.6499 142.299L67.5499 146.899L71.5499 160.399L90.6499 155.799L97.8499 179.999L120.5 174.549L103.4 116.999L103.75 116.799L156.55 165.899L179.05 160.449L171.85 136.249L190.8 131.699L186.8 118.199L167.85 122.749L165.2 113.849L184.15 109.299Z" fill="white"/>
</g>
<defs>
<clipPath id="clip0_37_33588">
<rect width="250" height="250" fill="white"/>
</clipPath>
</defs>
</svg>

<svg fill="none" height="250" viewBox="0 0 250 250" width="250" xmlns="http://www.w3.org/2000/svg" xmlns:xlink="http://www.w3.org/1999/xlink"><clipPath id="a"><path d="m0 0h250v250h-250z"/></clipPath><g clip-path="url(#a)"><path d="m250 125c0 69.05-55.95 125-125 125s-125-55.95-125-125 55.95-125 125-125 125 55.95 125 125z" fill="#f8931f"/><path d="m184.15 109.299-4-13.4998-18.95 4.5498-9.05-30.3998-22.5 5.45 17.15 57.5498-.35.2-52.8001-49.0998-22.7 5.45 9.05 30.3998-19.1 4.6 4 13.5 19.1-4.6 2.65 8.9-19.1 4.6 4 13.5 19.1-4.6 7.2 24.2 22.6501-5.45-17.1-57.55.35-.2 52.8 49.1 22.5-5.45-7.2-24.2 18.95-4.55-4-13.5-18.95 4.55-2.65-8.9z" fill="#fff"/></g></svg>
